X: 33533
T: Rainy Day, The
R: slip jig
M: 9/8
K: Eminor
EFG BAB AGF|EFG BAB deB|cBA BAG AGF|
EFG FED E3:|:efe def gag|fed edB ABc|
BGF EFG AFD|EFG FED E3:|

